X:1025
T:Mulloch Cairn
C:Charlie Sherrit
S:Album, Jim Johnstone, Government Warning (1984)
Z:Nigel Gatherer
M:4/4
L:1/8
K:D
d>e | f2 f<a d2 d>A | B>A B<d B2 A2 | c2 A>c e2 c>e | g>f e<d f2 e2 |
f2 f<a d2 d>A | B>A B<d B2 A2 | c2 A>c e<a e>f | d4 d2 :|
f>g | a2 a>g f2 f>e | d>A B<d B2 A2 | c2 A>c A>B c>A | g>f e<d f2 f>g |
a2 a>g f2 f>e | d>A B<d B2 A2 | c2 A>c e<a e>f | d4 d2 :|
f>e | d2 d>A B>d B<G | A2 d>e f>a f<d | c2 c>B A>c e<A | g>f e<d c2 e2 |
d2 d>A B>d B<G | A2 d>e f>a f<d | c2 A>c e<a e>f | d4 d2 :|
f>g | f<a a>g f<a d<f | B2 A>d f<a f<d | g>f f>e e>d d>A | B>A B>c d2 f>g |
f<a a>g f<a d<f | B2 A>d f<a f<d | c2 A>c e<a e>f | d4 d2 :|
<end>